X:20
T:The Moon Shines Bright
C:from the playing of Vic & Tina Smith
Q:1/4=180
I:abc2nwc
M:4/4
L:1/8
K:G
B2c2|d3e d2B2|A2G2G4|E2G2G2F2|E2D2D4|
dcBd c2A2|BAGB A2D2|EF G2B2A2|[1G4:|[2G6G2
|:E2G2G3E|D2B2B4|E2G2G3A|B2A2A4|
dcBd c2A2|BAGB A2D2|EF G2B2A2|[1G6G2:|[2G4|]


